!!!!SEGMENT: pl-kk--kk-i-267--002_anonim-gaude-maria-virgo.krn
!!!id: 16xx:722
!!!COM: Anonim
!!!OTL: Gaude Maria Virgo
!!!PDT:
!!!SMS-siglum: PL-Kk
!!!SMS-shelfmark: Kk.I.267
!!!NIFC-rismID: 1001134550
!!!URL-scan: http://repozytorium.nifc.pl/skany/pl-kk-nut--i-267
!!!ONB-nifc: UWAGA: utwory w zbiorze: 1. Rorate caeli, 2. Gaude Maria Virgo
!!!SMS-variant:
!!!SMS-altvar:
**kern	**text	**kern	**text	**kern	**text	**dynam	**kern	**text	**kern	**text
*part5	*part5	*part4	*part4	*part3	*part3	*part3	*part2	*part2	*part1	*part1
*staff5	*staff5	*staff4	*staff4	*staff3	*staff3	*	*staff2	*staff2	*staff1	*staff1
*I"Baſso Ripieno.	*	*I"Baſso.	*	*I"Tenore	*	*	*I"Alto.	*	*I"Canto.	*
*I'B rip	*	*I'B	*	*I'T	*	*	*I'A	*	*I'S	*
*group1	*	*group1	*	*group1	*	*	*group1	*	*group1	*
*clefF4	*	*clefF4	*	*clefC4	*	*	*clefC3	*	*clefC1	*
*k[b-e-]	*	*k[b-e-a-]	*	*k[b-e-a-]	*	*	*k[b-e-a-]	*	*k[b-e-a-]	*
*	*	*E-:	*	*E-:	*	*	*E-:	*	*E-:	*
*M3/2	*	*M3/2	*	*M3/2	*	*	*M3/2	*	*M3/2	*
=1	=1	=1	=1	=1	=1	=1	=1	=1	=1	=1
*2\right	*	*2\right	*	*2\right	*	*	*2\right	*	*2\right	*
!	!	!	!	!	!	!	!	!	!LO:TX:t=P:problem:f=Forte	!
!LO:TX:t=P:problem:znaki[BB- E- B-]	!	!LO:TX:a:i:t=Tractus.	!	!LO:TX:a:i:t=Tract(us).	!	!	!LO:TX:a:i:t=Tractus.	!	!LO:TX:a:i:t=Tractus.	!
!LO:TX:a:i:t=Tractus	!	!LO:TX:t=P:problem:znaki[BB- E- A- B-]	!	!LO:TX:t=P:problem:znaki[A- B- e-]	!	!	!LO:TX:t=P:problem:znaki[B- e- a-]	!	!LO:TX:t=P:problem:znaki[e- a- b- ee-]	!
2E-\	Gau-	2E-\	Gau-	2B-\	Gau-	.	2g\	Gau-	2ee-\	Gau-
2G\	-de	2G\	-de	2B-\	-de	.	2g\	-de	2ee-\	-de
2B-\	Ma-	2B-\	Ma-	2B-\	Ma-	.	2f\	Ma-	2dd\	Ma-
=2	=2	=2	=2	=2	=2	=2	=2	=2	=2	=2
1G	-ri-	1G	-ri-	1B-	-ri-	.	1g	-ri-	1ee-	-ri-
2A-X\	-a	2A-\	-a	2c\	-a	.	2f\	-a	2ee-\	-a
=3	=3	=3	=3	=3	=3	=3	=3	=3	=3	=3
1B-	Vir-	1B-	Vir-	1B-	Vir-	.	1f	Vir-	1ee-	Vir-
!LO:TX:t=P:problem:oddech jako rozdzielacz słów:global	!	!LO:TX:t=P:problem:oddech jako rozdzielacz słów:global	!	!	!	!	!LO:TX:t=P:problem:oddech jako rozdzielacz słów:global	!	!LO:TX:t=P:problem:oddech jako rozdzielacz słów:global	!
2BB-,/	-go	2BB-,/	-go	2B-\	-go	.	2f,\	-go	2dd,\	-go
=4	=4	=4	=4	=4	=4	=4	=4	=4	=4	=4
*	*ij	*	*ij	*	*ij	*	*	*ij	*	*ij
2BB-/	Gau-	2BB-/	Gau-	2B-\	Gau-	.	2f\	Gau-	2dd\	Gau-
2D\	-de	2D\	-de	2B-\	-de	.	2f\	-de	2dd\	-de
2F\	Ma-	2F\	Ma-	2An\	Ma-	.	2f\	Ma-	2cc\	Ma-
=5	=5	=5	=5	=5	=5	=5	=5	=5	=5	=5
1D	-ri-	1D	-ri-	1B-	-ri-	.	1f	-ri-	1dd	-ri-
2E-\	-a	2E-\	-a	2B-\	-a	.	2g\	-a	2cc\	-a
=6	=6	=6	=6	=6	=6	=6	=6	=6	=6	=6
1F	Vir-	1F	Vir-	1B-	Vir-	.	1f	Vir-	1cc	Vir-
2F\	-go/	2F\	-go	2An/	-go	.	2f\	-go	2cc\	-go
*	*Xij	*	*Xij	*	*Xij	*	*	*Xij	*	*Xij
=7	=7	=7	=7	=7	=7	=7	=7	=7	=7	=7
!	!	!	!	!	!	!LO:DY:a:t=Forte	!LO:TX:a:t=a3.	!	!	!
00.r	.	00.r	.	2r	.	f	2r	.	2r	.
.	.	.	.	2B-\	cun-	.	2f\	cun-	2dd\	cun-
.	.	.	.	2e-\	-ctas	.	2g\	-ctas	2b-\	-ctas
=8	=8	=8	=8	=8	=8	=8	=8	=8	=8	=8
.	.	.	.	2.d\	hae-	.	2.f\	hae-	2.b-\	hae-
.	.	.	.	4c\	-re-	.	4e-\	-re-	4cc\	-re-
.	.	.	.	2B-\	-ses	.	2f\	-ses	2dd\	-ses
=9	=9	=9	=9	=9	=9	=9	=9	=9	=9	=9
.	.	.	.	1c	so-	.	1e-	so-	1g	so-
.	.	.	.	2An/	-la	.	2f\	-la	2cc\	-la
=10	=10	=10	=10	=10	=10	=10	=10	=10	=10	=10
.	.	.	.	2B-\	in-	.	2b-X\	in-	2dd\	in-
!	!	!	!	!	!	!	!	!	!LO:TX:t=P:problem:♭above	!
.	.	.	.	2c\	-te-	.	2an\	-te-	2ee-X\	-te-
!	!	!	!	!LO:SIC:v:custos e-	!	!	!	!	!	!
.	.	.	.	2d\	-re-	.	2b-\	-re-	2ff\	-re-
!	!	!	!	!LO:LB:g=original	!	!	!	!	!	!
=11	=11	=11	=11	=11	=11	=11	=11	=11	=11	=11
1.r	.	1.r	.	2e-\	-mi-	.	1b-	-mi-	(4ee-\	-mi-
.	.	.	.	.	.	.	.	.	4dd\)	.
.	.	.	.	2f\	.	.	.	.	1ccT	.
!	!	!	!	!	!	!	!LO:SIC:v:custos b	!	!	!
.	.	.	.	2F/	.	.	2an\	.	.	.
!LO:LB:g=original	!	!	!	!	!	!	!LO:LB:g=original	!	!	!
=12	=12	=12	=12	=12	=12	=12	=12	=12	=12	=12
!	!	!	!	!LO:TX:t=P:problem:oddech jako rozdzielacz słów:global	!	!	!	!	!LO:SIC:v:custos b	!
2r	.	2r	.	2B-,\	-sti.	.	2b-,\	-sti.	2dd,\	-sti
!	!	!	!	!	!	!	!	!	!LO:LB:g=original	!
2E-\	Cun-	2E-\	Cun-	2e-\	Cun-	.	2g\	Cun-	2b-\	cun-
2A-X\	-ctas	2A-\	-ctas	2e-\	-ctas	.	2a-X\	-ctas	2cc\	-ctas
=13	=13	=13	=13	=13	=13	=13	=13	=13	=13	=13
2.G\	hae-	2.G\	hae-	2.e-\	hae-	.	2.e-\	hae-	2.b-\	hae-
4F\	-re-	4F\	-re-	4d\	-re-	.	4f\	-re-	4a-\	-re-
!	!	!LO:SIC:v:custos F	!	!	!	!	!	!	!	!
2E-\	-ſes	2E-\	-ses	2e-\	-ses	.	2g\	-ses	2b-\	-ses
!	!	!LO:LB:g=original	!	!	!	!	!	!	!	!
=14	=14	=14	=14	=14	=14	=14	=14	=14	=14	=14
1F	so-	1F	so-	(2c\	so-	.	1a-X	so-	1cc	so-
.	.	.	.	2f\)	.	.	.	.	.	.
2D\	-la	2D\	-la	2f\	-la	.	2f\	-la	2b-\	-la
=15	=15	=15	=15	=15	=15	=15	=15	=15	=15	=15
2E-\	in-	2E-\	in-	2B-\	in-	.	2g\	in-	2ee-\	in-
2F\	-te-	2F\	-te-	2d\	-te-	.	2a-\	-te-	2dd\	-te-
2G\	-re-	2G\	-re-	2B-\	-re-	.	2b-\	-re-	2ee-\	-re-
=16	=16	=16	=16	=16	=16	=16	=16	=16	=16	=16
2A-X\	-mi-	2A-\	-mi-	2c\	-mi-	.	4a-\	-mi-	(1ee-	-mi-
.	.	.	.	.	.	.	4g\	.	.	.
2B-\	.	2B-\	.	1B-	.	.	1f	.	.	.
2BB-/	.	2BB-/	.	.	.	.	.	.	2dd\)	.
=17	=17	=17	=17	=17	=17	=17	=17	=17	=17	=17
2E-,\	-sti.	2E-\	-sti.	2B-,\	-sti.	.	2g,\	-sti.	2ee-,\	-sti.
!	!	!	!	!LO:SIC:v:s=1A-	!	!	!	!	!	!
1A-X	Quae	1A-	Quae	1B-	Quae	.	1e-	Quae	1cc	Quae
=18	=18	=18	=18	=18	=18	=18	=18	=18	=18	=18
2.G\	Gab-	2.G\	Gab-	2.e-\	Gab-	.	2.e-\	Gab-	2.b-\	Gab-
4G\	-ri-	4G\	-ri-	4e-\	-ri-	.	4e-\	-ri-	4b-\	-ri-
2A-X\	-e-	2A-\	-e-	2c\	-e-	.	2e-\	-e-	2cc\	-e-
!LO:LB:g=original	!	!	!	!	!	!	!	!	!	!
=19	=19	=19	=19	=19	=19	=19	=19	=19	=19	=19
2G\	-lis	(2G\	-lis	(2B-\	-lis	.	1e-	-lis	(2b-\	-lis
2A-X\	Ar-	2A-\)	.	2e-\)	.	.	.	.	2cc\)	.
2F\	.	2F\	ar-	2A-X/	ar-	.	2f\	ar-	2dd\	ar-
=20	=20	=20	=20	=20	=20	=20	=20	=20	=20	=20
2.E-\	-chan-	2.E-\	-chan-	2.B-\	-chan-	.	2.g\	-chan-	2.ee-\	-chan-
4F\	-ge-	4F\	-ge-	4A-\	-ge-	.	4f\	-ge-	4dd\	-ge-
2G\	-li	2G\	-li	2B-\	-li	.	2e-\	-li	2b-\	-li
=21	=21	=21	=21	=21	=21	=21	=21	=21	=21	=21
1A-X	dic-	1A-	dic-	1A-X	dic-	.	1e-	dic-	1cc	dic-
2F\	-tis	2F\	-tis	2A-\	-tis	.	2f\	-tis	2dd\	-tis
!	!	!	!	!LO:LB:g=original	!	!	!	!	!	!
=22	=22	=22	=22	=22	=22	=22	=22	=22	=22	=22
1B-	cre-	1B-	cre-	1B-	cre-	.	1f	cre-	1dd	cre-
2G\	-di-	2G\	-di-	2B-\	-di-	.	2g\	-di-	2ee-\	-di-
=23	=23	=23	=23	=23	=23	=23	=23	=23	=23	=23
2c\	-di-	2c\	-di-	(2G/	-di-	.	(2g\	-di-	(1ee-	-di-
(2B-\	.	2B-\	.	1B-)	.	.	2b-\)	.	.	.
!	!	!	!	!	!	!	!LO:SIC:v:custos g	!	!	!
2BB-/)	.	2BB-/	.	.	.	.	2f\	.	2dd\)	.
!	!	!	!	!	!	!	!LO:LB:g=original	!	!	!
=24	=24	=24	=24	=24	=24	=24	=24	=24	=24	=24
2E-,\	-sti	2E-,\	-sti	2B-,\	-sti	.	2g,\	-sti.	2ee-,\	-sti.
1c	Dum	1c	Dum	1c	Dum	.	1g	dum	1ee-	dum
!	!	!LO:LB:g=original	!	!	!	!	!	!	!LO:LB:g=original	!
=25	=25	=25	=25	=25	=25	=25	=25	=25	=25	=25
1Bn	Vir-	1Bn	Vir-	(2d\	Vir-	.	1g	Vir-	1dd	Vir-
.	.	.	.	2Bn\)	.	.	.	.	.	.
2c\	-go	2c\	-go	2e-X\	-go	.	2g\	-go	2ee-\	-go
!LO:LB:g=original	!	!	!	!	!	!	!	!	!	!
=26	=26	=26	=26	=26	=26	=26	=26	=26	=26	=26
2Bn\	De-	2Bn\	De-	2Bn\	De-	.	2g\	De-	2dd\	De-
2c\	-um	2c\	-um	2e-X\	-um	.	2g\	-um	2cc\	-um
2A-X\	et	2A-X\	et	2c\	et	.	2f\	et	2cc\	et
=27	=27	=27	=27	=27	=27	=27	=27	=27	=27	=27
2.G\	Ho-	2.G\	ho-	2.Bn\	ho-	.	2.g\	Ho-	2.dd\	Ho-
4G\	-mi-	4G\	-mi-	4B\	-mi-	.	4g\	-mi-	4dd\	-mi-
2G,\	-nem	2G\	-nem	2B\	-nem	.	2g\	-nem	2dd\	-nem
=28	=28	=28	=28	=28	=28	=28	=28	=28	=28	=28
1G	ge-	1G	ge-	1Bn	ge-	.	1g	ge-	1dd	ge-
2A-X\	-nu-	2A-X\	-nu-	2c\	-nu-	.	2e-\	-nu-	2cc\	-nu-
=29	=29	=29	=29	=29	=29	=29	=29	=29	=29	=29
2F\	-i-	2F\	-i-	(1c	-i-	.	2a-\	-i-	1.dd	-i-
2G\	.	2G\	.	.	.	.	1g	.	.	.
2GG/	.	2GG/	.	2Bn\)	.	.	.	.	.	.
=30	=30	=30	=30	=30	=30	=30	=30	=30	=30	=30
2C/	-sti	2C,/	-sti	2c,\	-sti.	.	2g,\	-sti	2ee-,\	-sti
1E-	D(um)	1E-	dum	(2B-X\	Dum	.	1g	Dum	1b-	dum
.	.	.	.	2e-\)	.	.	.	.	.	.
=31	=31	=31	=31	=31	=31	=31	=31	=31	=31	=31
1D	vir-	1D	Vir-	(2B-\	Vir-	.	1f	Vir-	1b-	Vir-
.	.	.	.	2d\)	.	.	.	.	.	.
2E-\	-go	2E-\	-go	2B-\	-go	.	2g\	-go	2b-\	-go
=32	=32	=32	=32	=32	=32	=32	=32	=32	=32	=32
2D\	De-	2D\	De-	2d\	De-	.	2f\	De-	2b-\	De-
2E-\	-um	2E-\	-um	2B-,\	-um	.	2g\	-um	2b-\	-um
2C/	et	2C/	et	2c\	et	.	2e-\	et	2an\	et
!LO:LB:g=original	!	!	!	!LO:LB:g=original	!	!	!	!	!	!
=33	=33	=33	=33	=33	=33	=33	=33	=33	=33	=33
2.BB-/	Ho-	2.BB-/	ho-	2.d\	Ho-	.	2.f\	Ho-	2.b-\	Ho-
4BB-/	-mi-	4BB-/	-mi-	4d\	-mi-	.	4f\	-mi-	4b-\	-mi-
2BB-/	-nem	2BB-/	-nem	2d\	-nem	.	2f\	-nem	2b-\	-nem
=34	=34	=34	=34	=34	=34	=34	=34	=34	=34	=34
1BB-	ge-	1BB-	ge-	1F	ge-	.	1b-	ge-	1dd	ge-
!	!	!LO:SIC:v:custos AA-	!	!	!	!	!	!	!	!
2C/	-nu-	2C/	-nu-	2c\	-nu-	.	2a-X\	-nu-	2ee-\	-nu-
!	!	!LO:LB:g=original	!	!	!	!	!	!	!	!
=35	=35	=35	=35	=35	=35	=35	=35	=35	=35	=35
2AA-X/	-i-	2AA-/	-i-	(2c\	-i-	.	2a-\	-i-	1ee-	-i-
!	!	!	!	!	!	!	!LO:SIC:v:custos g	!	!	!
1BB-	.	1BB-	.	1B-)	.	.	1f	.	.	.
.	.	.	.	.	.	.	.	.	2dd\	.
!	!	!	!	!	!	!	!LO:LB:g=original	!	!	!
=36	=36	=36	=36	=36	=36	=36	=36	=36	=36	=36
2E-,\	-sti.	2E-,\	-sti,	2B-,\	-sti	.	2g,\	-sti.	2ee-,\	-sti
2E-\	et	2E-\	et	2B-\	et	.	2g\	Et	2ee-\	et
2F\	post	2F\	post	2A-X\	post	.	2f\	post	2dd\	post
=37	=37	=37	=37	=37	=37	=37	=37	=37	=37	=37
1G	par-	1G	par-	1B-	par-	.	1g	par-	1ee-	par-
2A-X\	-t(um)	2A-X\	-tum	2c\	-t(um)	.	2f\	-tum	2ee-\	-tum
!	!	!	!	!	!	!	!	!	!LO:LB:g=original	!
=38	=38	=38	=38	=38	=38	=38	=38	=38	=38	=38
1B-	Vir-	1B-	Vir-	1B-	Vir-	.	1f	Vir-	1dd	Vir-
2BB-/	-go	2BB-/	-go	2B-\	-go	.	2f\	-go	2dd\	-go
=39	=39	=39	=39	=39	=39	=39	=39	=39	=39	=39
00.r	.	00.r	.	2B-\	in-	.	2d\	in-	2f/	in-
.	.	.	.	2B-\	-vi-	.	2e-\	-vi-	2g\	-vi-
.	.	.	.	2B-\	-o-	.	2e-\	-o-	2g\	-o-
=40	=40	=40	=40	=40	=40	=40	=40	=40	=40	=40
.	.	.	.	1B-	-la-	.	1f	-la-	1a-X	-la-
.	.	.	.	2B-\	-ta	.	2e-\	-ta	2g\	-ta
=41	=41	=41	=41	=41	=41	=41	=41	=41	=41	=41
.	.	.	.	1B-	per-	.	(2d\	per-	(2f/	per-
.	.	.	.	.	.	.	2f\)	.	2b-\)	.
.	.	.	.	2d\	-man-	.	2f\	-man-	2b-\	-man-
=42	=42	=42	=42	=42	=42	=42	=42	=42	=42	=42
.	.	.	.	(2e-X\	-si-	.	(4e-/	-si-	1b-	-si-
.	.	.	.	.	.	.	4d/)	.	.	.
.	.	.	.	2f\)	.	.	1c	.	.	.
.	.	.	.	2F/	.	.	.	.	2an\	.
=43	=43	=43	=43	=43	=43	=43	=43	=43	=43	=43
1.r	.	1.r	.	1.B-	-sti	.	1.d,	-sti,	1.b-,	-sti
=44	=44	=44	=44	=44	=44	=44	=44	=44	=44	=44
2E-\	in-	2E-\	in-	2G/	in-	.	2e-\	in-	2b-\	in-
2E-\	-vi-	2E-\	-vi-	2A-X\	-vi-	.	2a-X\	-vi-	2cc\	-vi-
!	!	!	!	!LO:SIC:v:custos b	!	!	!	!	!	!
2E-\	-o-	2E-\	-o-	2A-\	-o-	.	2a-\	-o-	2cc\	-o-
!	!	!	!	!LO:LB:g=original	!	!	!	!	!	!
=45	=45	=45	=45	=45	=45	=45	=45	=45	=45	=45
1E-	-la-	1E-	-la-	1B-	-la-	.	1g	-la-	1dd-X	-la-
2E-\	-ta	2E-\	-ta	2A-X\	-ta	.	2e-\	-ta	2cc\	-ta
!LO:LB:g=original	!	!	!	!	!	!	!	!	!	!
=46	=46	=46	=46	=46	=46	=46	=46	=46	=46	=46
1E-	per-	1E-	per-	(2G/	per-	.	(2e-\	per-	(2b-\	per-
.	.	.	.	2B-\)	.	.	2g\)	.	2ee-\)	.
2G\	-man-	2G\	-man-	2B-\	-man-	.	2e-\	-man-	2ee-\	-man-
=47	=47	=47	=47	=47	=47	=47	=47	=47	=47	=47
!	!	!	!	!	!	!	!LO:SIC:v:custos g	!	!	!
2A-X\	-ſi-	2A-X\	-si-	2c\	-si-	.	1.f	-si-	1ee-	-si-
2B-\	.	2B-\	.	1B-	.	.	.	.	.	.
2BB-/	.	2BB-/	.	.	.	.	.	.	2dd\	.
!	!	!	!	!	!	!	!LO:LB:g=original	!	!	!
=48	=48	=48	=48	=48	=48	=48	=48	=48	=48	=48
2E-,\	-sti.	2E-,\	-sti.	2B-,\	-sti.	.	2g,\	-sti	2ee-,\	-sti.
2D\	De-	2D/	De-	2B-\	De-	.	2f\	De-	2b-\	De-
2BB-/	-i	2BB-/	-i	2B-\	-i	.	2f\	-i	2dd\	-i
=49	=49	=49	=49	=49	=49	=49	=49	=49	=49	=49
4E-\	Ge-	4E-\	Ge-	[1.B-	Ge-	.	(4g\	Ge-	1.ee-	Ge-
4D\	.	4D\	.	.	.	.	4f\	.	.	.
4E-\	.	4E-\	.	.	.	.	4g\	.	.	.
4F\	.	4F\	.	.	.	.	4a-\)	.	.	.
4G\	.	4G\	.	.	.	.	2g\	.	.	.
4A-X\	.	4A-\	.	.	.	.	.	.	.	.
!	!	!LO:LB:g=original	!	!	!	!	!	!	!	!
=50	=50	=50	=50	=50	=50	=50	=50	=50	=50	=50
2.B-\	.	2.B-\	.	2.B-\]	.	.	2.f\	.	2.dd\	.
4B-\	-ni-	4B-\	-ni-	4B-\	-ni-	.	4f\	-ni-	4dd\	-ni-
2BB-/	-trix	2B-\	-trix	2B-\	-trix	.	2f\	-trix	2dd\	-trix
!	!	!	!	!	!	!	!	!	!LO:LB:g=original	!
=51	=51	=51	=51	=51	=51	=51	=51	=51	=51	=51
1BB-	in-	1BB-	in-	1B-	in-	.	(2d\	in-	(2f/	in-
.	.	.	.	.	.	.	2e-\)	.	2g\)	.
2AAn/	-ter-	2AAn/	-ter-	2c\	-ter-	.	2f\	-ter-	2an\	-ter-
=52	=52	=52	=52	=52	=52	=52	=52	=52	=52	=52
2GG/	-ce-	2GG/	-ce-	(2B-\	-ce-	.	1g	-ce-	1b-	-ce-
(2AAn/	.	2AAn/	.	2c\)	.	.	.	.	.	.
2BB-X/)	.	2BB-/	.	2d\	.	.	2f,\	-de	2an\	-de
=53	=53	=53	=53	=53	=53	=53	=53	=53	=53	=53
*	*	*	*	*	*	*	*	*ij	*	*ij
1C	-de	1C	.	(2e-\	.	.	(2e-\	in-	(2g\	in-
.	.	.	.	2c\)	.	.	2f\)	.	2an\)	.
2BB-,/	.	2BB-/	-de	2d,\	-de	.	2g\	-ter-	2b-\	-ter-
=54	=54	=54	=54	=54	=54	=54	=54	=54	=54	=54
2AAn/	in-	2AAn/	in-	(2c\	in-	.	1an	-ce-	1cc	-ce-
(2BB-/	-ter-	2BB-/	-ter-	2d\)	.	.	.	.	.	.
2C/)	.	2C/	.	2e-X\	-ter-	.	2g,\	-de	2b-\	-de
*	*	*	*	*	*	*	*	*Xij	*	*Xij
!LO:LB:g=original	!	!	!	!	!	!	!	!	!	!
=55	=55	=55	=55	=55	=55	=55	=55	=55	=55	=55
1D	-ce-	1D	-ce-	(2f\	-ce-	.	(2f\	in-	(2an\	in-
.	.	.	.	2d\)	.	.	2g\)	.	2b-X\)	.
2C,/	-de	2C/	-de	2e-X\	-de	.	2an\	-ter-	2cc\	-ter-
!	!	!	!	!LO:LB:g=original	!	!	!	!	!	!
=56	=56	=56	=56	=56	=56	=56	=56	=56	=56	=56
*	*ij	*	*ij	*	*	*	*	*	*	*
2BB-/	in-	(2BB-/	in-	(2d\	in-	.	1b-	-ce-	1dd	-ce-
(2C/	-ter-	2C/)	-ter-	2e-\)	.	.	.	.	.	.
2D/)	.	2D\	.	2f\	-ter-	.	2an\	-de	2cc\	-de
=57	=57	=57	=57	=57	=57	=57	=57	=57	=57	=57
*	*	*	*	*	*	*	*	*ij	*	*ij
1E-	-ce-	1E-	-ce-	(2g\	-ce-	.	(2g\	in-	(2b-\	in-
.	.	.	.	2e-\)	.	.	2an\)	.	2cc\)	.
2D,\	-de	2D\	-de	2f\	-de	.	2b-\	-ter-	2dd\	-ter-
=58	=58	=58	=58	=58	=58	=58	=58	=58	=58	=58
*	*Xij	*	*Xij	*	*ij	*	*	*	*	*
2C/	in-	2C/	in-	2E-/	in-	.	1cc	-ce-	1ee-X	-ce-
2D\	-ter-	2D\	-ter-	2F/	.	.	.	.	.	.
2E-\	.	2E-\	.	2G/	-ter-	.	2b-\	-de	2dd,\	-de
*	*	*	*	*	*	*	*	*Xij	*	*Xij
!	!	!	!	!	!	!	!LO:LB:g=original	!	!	!
=59	=59	=59	=59	=59	=59	=59	=59	=59	=59	=59
1F	-ce-	1F	-ce-	1F	-ce-	.	(2an\	pro-	(2cc\	pro
.	.	.	.	.	.	.	2b-\)	.	2dd\)	.
!	!	!LO:SIC:v:custos E	!	!	!	!	!	!	!	!
2D,\	-de	2D\	-de	2B-\	-de	.	2f\	.	2ff\	.
*	*	*	*	*	*Xij	*	*	*	*	*
!	!	!LO:LB:g=original	!	!	!	!	!	!	!	!
=60	=60	=60	=60	=60	=60	=60	=60	=60	=60	=60
2E-\	pro	2E-\	pro	2B-\	pro	.	2g\	-no-	4ee-\	no-
.	.	.	.	.	.	.	.	.	4dd\	.
2F\	no-	2F\	no-	(2B-\	no-	.	1f	.	1cc	.
!	!	!LO:TX:a:t=P:problem:przekreślona nuta i korekta na FF	!	!	!	!	!	!	!	!
2FF/	.	2FF/	.	2An\)	.	.	.	.	.	.
=61	=61	=61	=61	=61	=61	=61	=61	=61	=61	=61
2BB-,/	-bis	2BB-,/	-bis	2B-\	-bis	.	2f,\	-bis	2dd,\	-bis
2B-\	in-	2B-\	in-	2B-\	in-	.	2f\	in-	2dd\	in-
2A-X\	-ter-	2A-X\	-ter-	2B-\	-ter-	.	2f\	-ter-	2dd\	-ter-
!	!	!	!	!	!	!	!	!	!LO:LB:g=original	!
=62	=62	=62	=62	=62	=62	=62	=62	=62	=62	=62
(2G\	-ce-	(2G\	-ce-	(2e-\	-ce-	.	(2g\	-ce-	(2b-\	-ce-
2F\)	.	2F\)	.	2d\)	.	.	2a-X\)	.	2dd\)	.
2E-\	-de	2E-\	-de	2B-\	-de	.	2b-\	-de	2ee-\	-de
=63	=63	=63	=63	=63	=63	=63	=63	=63	=63	=63
2A-X\	pro	2A-\	pro	2c\	pro	.	4a-\	pro	2ee-,\	pro
.	.	.	.	.	.	.	4g\	.	.	.
2B-\	no-	2B-\	no-	1B-	no-	.	1f	no-	(2ee-\	no-
2BB-/	.	2BB-/	.	.	.	.	.	.	2dd\)	.
!LO:LB:g=original	!	!	!	!	!	!	!	!	!	!
=64	=64	=64	=64	=64	=64	=64	=64	=64	=64	=64
[1.E-;	-bis.	1.E-;	-bis.	1.B-;;	-bis	.	1.g;;	-bis	1.ee-;;	-bis
=65	=65	=65	=65	=65	=65	=65	=65	=65	=65	=65
1.E-]	.	1.ryy	.	1.ryy	.	.	1.ryy	.	1.ryy	.
==	==	==	==	==	==	==	==	==	==	==
*-	*-	*-	*-	*-	*-	*-	*-	*-	*-	*-
!!!system-decoration: [(g1)]
!!!ENC: Andrzej Borzym
!!!END: 2021-01-20
!!!ENC:Anna Matuszewska
!!!END:2021-01-21
